!!!OTL: Sipan
!!!ARE: Asia, China,ÿShandong, Rizhao
!! III, 392
!!!SCT: C1576A
!!!YEM: Copyright 1995, estate of Helmut Schaffrath.
**kern
*ICvox
*Ivox
*M2/4
*k[f#c#g#d#]
*E:
{8b
16g#
16cc#
4b
=1
8b
16cc#
16b
8g#
8b
=2
16cc#
16b
8cc#
8cc#
16b
16g#
=3
8b
16cc#
16b
4g#}
=4
{4b
16cc#
16b
16cc#
16ee
=5
16b
16cc#
16b
16g#
16f#
16g#
16b
16cc#
=6
8e
16c#
16e
4f#
=7
8f#
8e
4r}
==
!!!AGN: Xiaodiao, Manjianghong
!!!AMT: simple duple
!!!AIN: vox
!!!EED: Helmut Schaffrath
!!!EEV: 1.0
*-
